X: 1
T: Fred Picknell's March
Z: ceolachan
S: https://thesession.org/tunes/12490#setting20872
R: barndance
M: 4/4
L: 1/8
K: Gmaj
|: G4 d4 | d2 cB AGAB | c2 g2 g2 fe | d3 c B2 gf |
e2 dc Bc d2 | A2 GA B2 ed | cBAG E3 D | D4- D4 :|
D4 d2 AB | cdBc A2 BA | G2 d/e/f g2 fe | d/e/d cd B2 ba |
g2 gf efge | agfe dBgf | edcB A3 G | G4- G4 ||
|: G4 d4 | d2 cB AGAB | c2 d/e/f g2 fe | d2 dc B2 gf |
e2 dc Bc d2 | A2 Bc B2 ed | cBAG E3 D | D4- D4 :|
D4 d2 AB | cdBc A2 BA | G2 g2 g2 fe | decd B2 ba |
g2 gf efge | agfe d2 gf | edcB A2 d2 | G4- G2 E2 |
D2 d2 d2 AB | cdBc A2 BA | GA/B/ d/e/f g2 fe | d/e/d cd B2 ba |
g2 gf efge | agfe dBgf | edcB A3 G | G4- G4 |]
